X: 21242
T: MY MITHER'S AYE GLOWERIN' O'ER ME
%R: jig
B: "Edinburgh Repository of Music" v.2 p.124 #2
F: http://digital.nls.uk/special-collections-of-printed-music/pageturner.cfm?id=87776133
Z: 2015 John Chambers <jc:trillian.mit.edu>
M: 6/8
L: 1/8
K: Gm
D |\
G>AG ^F2D | B3 ABc | d>ed c2B | f3 d2g |\
fdB Bfd | cAF Fdc | {c}B>AG A^FD | (B3 A2) :|
|: d |\
g>ag {g}^f2d | g>ab {b}a2g |fdb dcB | f3 g>ab |\
fdB Bfd | cAF Fdc | {c}B>AG A^FD | (B3 A2) :|
